X:1
T:Title
%%score ( 1 2 ) { 3 | 4 }
L:1/8
Q:1/4=95
M:4/4
K:Db
V:1 treble nm="Grand Piano, Soprano"
V:2 treble 
V:3 bass nm="Choir Pad, Sing of the Lamb"
V:4 bass 
V:1
 [FA]2 [GB]>[Gc] [Fd]2 [DF]2 | B2 z2 z4 | [EG]2 [DF][Fd] [Ec]2 [Ee][Ee] | %3
w: By~Henry~Lake~Gilmour * * * *|||
 [Ed]2 [D=G]2 [CA]2 [E_G]2 | z4 z2 .B2 | [Ad]2 ed [Ec]4 | dA[Ac][GB] [FA]3 [EG] | [DF]2 [CE]2 D4 | %8
w: |||||
[Q:1/4=110] [FA]6 [Fd]2 | [FA]6 [DF]2 | [GB]2 [FA]2 [DF]2 [EG]2 | [CE]4 z4 | [DF]6 [EG]2 | %13
w: |||||
 [FA]6 [Fd]2 | [Ec]6 [EB]2 | [EA]4 z4 | [FA]6 [Fd]2 | [FA]6 [DF]2 | G2 [FA]2 [GB]2 [=Gd]2 | %19
w: ||||||
 c2- [Ac]2 A2 A2 | [Fd]2 (3dcB A2 F2 | [GB]2 (3BAG F4 | [CE]2 [DF][EG] [FA]2 [Ad]2 | %23
w: ||||
 [Ge]2 [Gc]2 [Fd]4- | [Fd]4 z4 |] %25
w: ||
V:2
 x8 | D2- [DA]>[CG] [DF]4 | x8 | x8 | [DF]2 [FA]>[GB] [FA]2 G-[Gc] | z2 G2 z4 | F2 z2 z4 | x8 | %8
 x8 | x8 | x8 | x8 | x8 | x8 | x8 | x8 | x8 | x8 | x8 | A2 z2 z4 | x8 | x8 | x8 | x8 | x8 |] %25
V:3
 D2 D>A, A,2 A,2 | G,2 A,>A, A,4 | A,2 A,A, A,2 CC | B,2 B,2 A,4 | A,2[K:treble] D>D D2 DE | %5
 D2[K:bass] B,2 A,4 | A,DDD D3 B, | A,2 G,2 F,4 | D2 D2 D2 z2 | D2 D2 D2 z2 | D2 D2 A,2 B,2 | %11
 A,2 A,2 A,G,F,E, | A,2 A,2[K:treble] A,2 A,2 | D2 D2 D2 z2 | A,2 A,2 A,2 D2 | C2 B,2 A,2 G,2 | %16
 F,2 A,2 D2 z2 | F,2 A,2[K:treble] D2 A,2 | D2 D2 D2 E2 | E4 z4 | A,2 (3DCB, A,2 F,2 | %21
 D2 (3B,A,G, F,4 | A,G,A,[K:treble]D D2 D2 | C2 A,2 A,4- | A,4 z4 |] %25
V:4
 D,2 D,>D, D,2 D,2 | z2 F,>E, D,4 | C,2 D,D, E,2 E,E, | E,2 E,2 A,,4 | D,2 D,>D, D,2 G,2 | %5
 F,2 G,2 z4 | D,2 D,D, D,2 F,G, | z2 A,,2 D,4 | D,2 D,2 D,2 z2 | D,2 D,2 D,2 z2 | %10
 D,2 D,2 D,2 G,,2 | A,,2 z2 z4 | D,2 D,2 D,2 D,2 | D,2 D,2 D,2 z2 | E,2 E,2 E,2 E,2 | %15
 A,2 G,2 F,2 E,2 | D,2 D,2 D,2 z2 | D,2 D,2 D,2 D,2 | B,2 A,2 G,2 E,2 | A,4 z4 | D,2 z2 z4 | %21
 G,2 z2 z4 | z2 F,E, D,2 F,2 | A,2 z2 D,4- | D,4 z4 |] %25

